packages/ndla-icons/svg/editor/Eye.svg

<svg xmlns="http://www.w3.org/2000/svg" data-license="Apache License 2.0" data-source="Material Design" viewBox="0 0 24 24">
  <path d="M12 9a3 3 0 0 0-3 3 3 3 0 0 0 3 3 3 3 0 0 0 3-3 3 3 0 0 0-3-3m0 8a5 5 0 0 1-5-5 5 5 0 0 1 5-5 5 5 0 0 1 5 5 5 5 0 0 1-5 5m0-12.5C7 4.5 2.7 7.6 1 12a11.8 11.8 0 0 0 22 0c-1.7-4.4-6-7.5-11-7.5Z"/>
</svg>

<svg height="24" viewBox="0 0 24 24" width="24" xmlns="http://www.w3.org/2000/svg" data-license="Apache License 2.0" data-source="Material Design">
  <path d="M12,9A3,3 0 0,0 9,12A3,3 0 0,0 12,15A3,3 0 0,0 15,12A3,3 0 0,0 12,9M12,17A5,5 0 0,1 7,12A5,5 0 0,1 12,7A5,5 0 0,1 17,12A5,5 0 0,1 12,17M12,4.5C7,4.5 2.73,7.61 1,12C2.73,16.39 7,19.5 12,19.5C17,19.5 21.27,16.39 23,12C21.27,7.61 17,4.5 12,4.5Z" />
</svg>
